X:1
T:Title
%%score { ( 1 3 ) | ( 2 4 ) }
L:1/8
M:9/8
K:Db
V:1 treble nm="Grand Piano"
V:3 treble 
V:2 treble 
V:4 treble 
V:1
 z3 z3[Q:1/4=100] ABA | [Fd]6 z3 | [A,FA]3 [A,EG]3 GFG | [Ac]6 z3 |[M:3/4] [A,DF]6 |[M:3/8] ABA | %6
[M:9/8] [Fd]6 z3 | [A,FA]3 [A,EG]3 GFG | [Ac]6 z3 |[M:3/4] [A,DF]6 |[M:3/8] ABA |[M:9/8] e6 z3 | %12
 [FA]3 [Fd]3 ABA | e6 z3 |[M:3/4] [Fd]6 |[M:3/8] FGF |[M:9/8] B6 z3 | c3 F3 FGF | B6 z3 | %19
[M:3/4] [EAc]6 |[M:3/8] z3 |[M:9/8] f6 z3 | [FA]3 [Fd]3 EGB | z2 G F2 F Ade |[M:6/8] .A3 d3 | %25
[M:9/8] e3 B3 c3 |[M:3/4] [Fd]6 |] %27
V:2
 z3 z3 FGF | z3 z3 .[D,D]3 | A,,3 A,,3 EDE | z3 z3 .A,3 |[M:3/4] D,6 |[M:3/8][K:treble] FGF | %6
[M:9/8][K:bass] z3 z3 .[D,D]3 | A,,3 A,,3 EDE | z3 z3 .A,3 |[M:3/4] D,6 |[M:3/8] z3 | %11
[M:9/8][K:treble] z3 z3 .[A,G]3 | [D,D]3 [D,A,]3 z3 | z3 z3 .[A,G]3 |[M:3/4][K:bass] [D,A,]6 | %15
[M:3/8] z3 |[M:9/8] [B,,B,]2 [B,,B,] [B,,B,]2 [B,,B,] [B,,F,]2 [B,,B,] | [F,=A,E]3 [F,A,E]3 z3 | %18
 [G,DG]2 [G,D] [G,D]2 [G,DG] z[K:treble] cE, |[M:3/4] A,6 |[M:3/8] ABA | %21
[M:9/8][K:bass] [D,D]2 [D,D] [D,D]2 [D,A,] [G,B,G]2 [G,DG] | [D,D]3 [D,A,]3 z3 | %23
 [G,DG]2 [G,D] [D,D]2 [D,D] z3 |[M:6/8] [D,D]2 [D,D] [D,A,]2 [D,A,] | %25
[M:9/8] [G,B,G]2 [G,B,] [E,E]2 [E,E][K:treble] [A,G]2 A, |[M:3/4][K:bass] [D,A,]6 |] %27
V:3
 x9 | z2 A, A,2 [FA] [FA]G[A,DF] | x9 | z2 A, A,2 [GB] [GB][FA][A,EG] |[M:3/4] x6 |[M:3/8] x3 | %6
[M:9/8] z2 A, A,2 [FA] [FA]G[A,DF] | x9 | z2 A, A,2 [GB] [GB][FA][A,EG] |[M:3/4] x6 |[M:3/8] x3 | %11
[M:9/8] z2 G G2 c cBA | x9 | z2 G G2 c cBA |[M:3/4] x6 |[M:3/8] x3 | %16
[M:9/8] D2 D D2 [DF] [DB][Ec][Fd] | x9 | z2 G G2 B .[E=GB]2 [EGd] |[M:3/4] x6 |[M:3/8] x3 | %21
[M:9/8] A2 A A2 [Fd] edB | x9 | B3 A3 z3 |[M:6/8] f2- [Af] F2 F |[M:9/8] z2 G =G2 G z2 _G | %26
[M:3/4] x6 |] %27
V:4
 x9 | [D,A,]2 D, D,2 [D,D] z ED, | x9 | [A,,A,]2 A,, A,,2 [A,,A,] A,,B,,C, |[M:3/4] x6 | %5
[M:3/8][K:treble] x3 |[M:9/8][K:bass] [D,A,]2 D, D,2 [D,D] z ED, | x9 | %8
 [A,,A,]2 A,, A,,2 [A,,A,] A,,B,,C, |[M:3/4] x6 |[M:3/8] x3 | %11
[M:9/8][K:treble] [A,CG]2 [A,C] [A,C]2 [A,EG] ED[A,CG] | x9 | %13
 [A,CG]2 [A,C] [A,C]2 [A,EG] ED[A,CG] |[M:3/4][K:bass] x6 |[M:3/8] x3 |[M:9/8] x9 | x9 | %18
 z3 z3 .E,3[K:treble] |[M:3/4] x6 |[M:3/8] x3 |[M:9/8][K:bass] x9 | x9 | x9 |[M:6/8] x6 | %25
[M:9/8] x6[K:treble] x3 |[M:3/4][K:bass] x6 |] %27

